svg/import.svg

<?xml version="1.0" encoding="UTF-8"?>
<svg xmlns="http://www.w3.org/2000/svg" xmlns:xlink="http://www.w3.org/1999/xlink" width="32" height="32" viewBox="0 0 32 32">
<path fill-rule="nonzero" fill="rgb(0%, 0%, 0%)" fill-opacity="1" d="M 1.28125 -0.0195312 C 1.105469 -0.0195312 0.9375 0.046875 0.8125 0.171875 C 0.691406 0.296875 0.621094 0.464844 0.621094 0.640625 L 0.621094 31.359375 C 0.621094 31.722656 0.914062 32.019531 1.28125 32.019531 L 20.480469 32.019531 C 20.65625 32.019531 20.824219 31.949219 20.949219 31.828125 C 21.070312 31.703125 21.140625 31.535156 21.140625 31.359375 L 21.140625 16.640625 L 11.78125 16.640625 L 16.378906 21.242188 C 16.496094 21.363281 16.5625 21.523438 16.566406 21.691406 C 16.5625 21.859375 16.496094 22.019531 16.378906 22.140625 C 16.257812 22.265625 16.09375 22.335938 15.921875 22.339844 C 15.753906 22.339844 15.589844 22.265625 15.480469 22.140625 L 9.339844 16 L 15.480469 9.859375 C 15.597656 9.738281 15.761719 9.671875 15.929688 9.671875 C 16.097656 9.671875 16.261719 9.738281 16.378906 9.859375 C 16.5 9.976562 16.566406 10.140625 16.566406 10.308594 C 16.566406 10.476562 16.5 10.640625 16.378906 10.757812 L 11.78125 15.359375 L 21.140625 15.359375 L 21.140625 0.640625 C 21.140625 0.464844 21.074219 0.296875 20.949219 0.171875 C 20.824219 0.0507812 20.65625 -0.0195312 20.480469 -0.0195312 Z M 21.140625 15.359375 L 21.140625 16.640625 L 30.71875 16.640625 C 31.054688 16.613281 31.308594 16.335938 31.308594 16 C 31.308594 15.664062 31.054688 15.386719 30.71875 15.359375 Z M 21.140625 15.359375 "/>
</svg>

<svg role="img" viewBox="0 0 32 32" height="32" width="32" xmlns="http://www.w3.org/2000/svg"><path d="M1.281-.02a.659.659 0 0 0-.468.192A.675.675 0 0 0 .62.64v30.718c0 .364.293.66.66.66h19.2c.175 0 .343-.07.468-.19a.675.675 0 0 0 .192-.47V16.641h-9.36l4.598 4.601a.667.667 0 0 1 .187.45.667.667 0 0 1-.187.449.656.656 0 0 1-.457.199.586.586 0 0 1-.442-.2L9.34 16l6.14-6.14a.626.626 0 0 1 .45-.188c.168 0 .332.066.449.187a.626.626 0 0 1 .187.45.626.626 0 0 1-.187.449l-4.598 4.601h9.36V.641a.659.659 0 0 0-.192-.47.675.675 0 0 0-.469-.19Zm19.86 15.38v1.28h9.578a.64.64 0 0 0 .59-.64.64.64 0 0 0-.59-.64Zm0 0"/></svg>
